Newaita/actions/symbolic/media-playlist-repeat-song-symbolic-rtl.svg

<svg height="16" viewBox="0 0 16 16" width="16" xmlns="http://www.w3.org/2000/svg"><g fill="#424242"><path d="m11.578125 14.015625-2.316406-2.644531h1.324219v-8.601563c0-.363281.292968-.660156.660156-.660156h.660156c.367188 0 .664062.296875.664062.660156v8.601563h1.320313zm0 0"/><path d="m4.300781 2.109375-2.316406 2.644531h1.324219v8.601563c0 .367187.292968.660156.660156.660156h.660156c.367188 0 .664063-.292969.664063-.660156v-8.601563h1.320312zm0 0"/><path d="m7.609375 6.078125h.660156c.363281 0 .660157.296875.660157.660156v2.316407c0 .367187-.296876.664062-.660157.664062h-.660156c-.367187 0-.664063-.296875-.664063-.664062v-2.316407c0-.363281.296876-.660156.664063-.660156zm0 0"/></g></svg>

<?xml version="1.0" encoding="UTF-8"?>
<svg xmlns="http://www.w3.org/2000/svg" xmlns:xlink="http://www.w3.org/1999/xlink" width="16px" height="16px" viewBox="0 0 16 16" version="1.1">
<g id="surface1">
<path style=" stroke:none;fill-rule:nonzero;fill:rgb(25.882354%,25.882354%,25.882354%);fill-opacity:1;" d="M 11.578125 14.015625 L 9.261719 11.371094 L 10.585938 11.371094 L 10.585938 2.769531 C 10.585938 2.40625 10.878906 2.109375 11.246094 2.109375 L 11.90625 2.109375 C 12.273438 2.109375 12.570312 2.40625 12.570312 2.769531 L 12.570312 11.371094 L 13.890625 11.371094 Z M 11.578125 14.015625 "/>
<path style=" stroke:none;fill-rule:nonzero;fill:rgb(25.882354%,25.882354%,25.882354%);fill-opacity:1;" d="M 4.300781 2.109375 L 1.984375 4.753906 L 3.308594 4.753906 L 3.308594 13.355469 C 3.308594 13.722656 3.601562 14.015625 3.96875 14.015625 L 4.628906 14.015625 C 4.996094 14.015625 5.292969 13.722656 5.292969 13.355469 L 5.292969 4.753906 L 6.613281 4.753906 Z M 4.300781 2.109375 "/>
<path style=" stroke:none;fill-rule:nonzero;fill:rgb(25.882354%,25.882354%,25.882354%);fill-opacity:1;" d="M 7.609375 6.078125 L 8.269531 6.078125 C 8.632812 6.078125 8.929688 6.375 8.929688 6.738281 L 8.929688 9.054688 C 8.929688 9.421875 8.632812 9.71875 8.269531 9.71875 L 7.609375 9.71875 C 7.242188 9.71875 6.945312 9.421875 6.945312 9.054688 L 6.945312 6.738281 C 6.945312 6.375 7.242188 6.078125 7.609375 6.078125 Z M 7.609375 6.078125 "/>
</g>
</svg>
